X: 37812
T: Sonny Brogan's
R: jig
M: 6/8
K: Edorian
A,|:B,EF GFG|AGA BAB|EGE G (3GAB|AGE EDE|
B,EF GFG|A^GA BAB|efe dBA|GEB, E3:|
A|:Bee efe|dBc dBA|B2e efe|dBA GEE|
Bee efe|dBc dcd|e3 dBA|(3GFE B, E3:|

